X: 95
T:Missa Fortuna desperata / Agnus Dei
N: Derived from Jos0802e-Missa_Fortuna_desperata-Agnus.krn
C: Josquin des Prez
%%abc-version 2.0
%%abcx-abcm2ps-target-version 5.9.1 (29 Sep 2008)
%%abc-creator hum2abc beta
%%abcx-conversion-date 2019/02/12 16:15:42
%%abc-edited-by Jesse Rodin
%%abc-edited-by Jesse Rodin; Victoria Chang 2011/04/13
%%abcx-initial-encoding-date 2011/04/13/
%%humdrum-veritas 2573174587
%%humdrum-veritas-data 1284553730
%%linebreak <none>
%%barnumbers 0
L: 1/4
M: 2/1
Q: 1/2=120
%%staves [1 2 3 4]
V: 1 clef=treble
V: 2 clef=treble-8
V: 3 clef=treble-8
V: 4 clef=bass
K: C
[V:1] z8 | 
[V:2] c6BA | 
[V:3] z8 | 
[V:4] C,8- :
[V:1] z8 | 
[V:2] c3BG4- | 
[V:3] z8 | 
[V:4] C,8- :
[V:1] c6BA | 
[V:2] G2A4GF | 
[V:3] z8 | 
[V:4] C,8- :
[V:1] c3BG4- | 
[V:2] E4c4- | 
[V:3] z8 | 
[V:4] C,8 | 
[V:1] G2A4GF | 
[V:2] c2BAc3d | 
[V:3] c6BA | 
[V:4] C,8- :
[V:1] E8 | 
[V:2] e2c3Bc2 | 
[V:3] c3BG4 | 
[V:4] C,8 :
[V:1] z4F4- | 
[V:2] A2d4c2 | 
[V:3] F6ED | 
[V:4] D,8- :
[V:1] F2EDF3E | 
[V:2] A4F4 | 
[V:3] F3GA4 | 
[V:4] D,8 | 
[V:1] C6D2- | 
[V:2] z4f4- | 
[V:3] z2A4GF | 
[V:4] F,8- :
[V:1] D2CB,A,4 | 
[V:2] f2edf3e | 
[V:3] A3Bc4 | 
[V:4] F,8- :
[V:1] z2A,4G,F, | 
[V:2] c6d2- | 
[V:3] z4f4- | 
[V:4] F,8- :
[V:1] A,3B,C4- | 
[V:2] d2cBA4- | 
[V:3] f2edf3e | 
[V:4] F,8 | 
[V:1] C2D2E2F2- | 
[V:2] A2GFE2D2 | 
[V:3] c6d2- | 
[V:4] z8 :
[V:1] F2EDC4 | 
[V:2] F8- | 
[V:3] d2cBA4 | 
[V:4] x8 :
[V:1] z4D4- | 
[V:2] F4G4- | 
[V:3] D8- | 
[V:4] _B,,8- :
[V:1] D8 | 
[V:2] G8 | 
[V:3] D8 | 
[V:4] B,,8 | 
[V:1] C6B,A, | 
[V:2] A3Bcdc2- | 
[V:3] z4A4 | 
[V:4] A,,8- :
[V:1] C3DE4 | 
[V:2] c2BAc4 | 
[V:3] A4A4 | 
[V:4] A,,8- :
[V:1] z4A,4 | 
[V:2] A3Bcdc2- | 
[V:3] c6BA | 
[V:4] A,,8- :
[V:1] A,4A,4 | 
[V:2] c2BAc3d | 
[V:3] c3de4 | 
[V:4] A,,8 | 
[V:1] C6B,A, | 
[V:2] e4A4 | 
[V:3] A3Bcdc2- | 
[V:4] A,,8- :
[V:1] C3DE4 | 
[V:2] A4A4 | 
[V:3] c2BAc3d | 
[V:4] A,,8 :
[V:1] A,3B,CDC2- | 
[V:2] c6BA | 
[V:3] e4A4 | 
[V:4] A,,8- :
[V:1] C2B,A,C3D | 
[V:2] c3de4 | 
[V:3] e4A3B | 
[V:4] A,,8 | 
[V:1] E4z4 | 
[V:2] A4e4 | 
[V:3] cdc4BA | 
[V:4] A,,8- :
[V:1] z8 | 
[V:2] A3Bcdc2- | 
[V:3] c2F4ED | 
[V:4] A,,8- :
[V:1] z4C4- | 
[V:2] c2BAc2F2- | 
[V:3] E4A4- | 
[V:4] A,,8- :
[V:1] C8 | 
[V:2] F2EDE4 | 
[V:3] A8 | 
[V:4] A,,8 | 
[V:1] D6E2 | 
[V:2] D4G4 | 
[V:3] F4_B4- | 
[V:4] _B,,8- :
[V:1] F8- | 
[V:2] F4D4 | 
[V:3] B2c2d4 | 
[V:4] B,,8- :
[V:1] F8- | 
[V:2] d8 | 
[V:3] D8 | 
[V:4] B,,8- :
[V:1] F8 | 
[V:2] _B8 | 
[V:3] d8 | 
[V:4] B,,8 | 
[V:1] E3FGAG2- | 
[V:2] G8 | 
[V:3] c6B2 | 
[V:4] C,8- :
[V:1] G2FEG4 | 
[V:2] c6B2 | 
[V:3] A4G4 | 
[V:4] C,8- :
[V:1] C4G4 | 
[V:2] A4G4 | 
[V:3] z2c4BA | 
[V:4] C,8- :
[V:1] z4G4- | 
[V:2] z2c4BA | 
[V:3] G2A2G4 | 
[V:4] C,8 | 
[V:1] G2FEG4 | 
[V:2] G2A2G4 | 
[V:3] c3de4 | 
[V:4] C,8- :
[V:1] C4G4 | 
[V:2] c3de4 | 
[V:3] z2e4dc | 
[V:4] C,8 :
[V:1] z4G4- | 
[V:2] z2e4dc | 
[V:3] B2c2B2e2 | 
[V:4] E,8- :
[V:1] G2FEG3A | 
[V:2] B2c2B2e2 | 
[V:3] z2e4dc | 
[V:4] E,8 | 
[V:1] B2E2G4- | 
[V:2] z2e4dc | 
[V:3] B2c2B4 | 
[V:4] E,8- :
[V:1] G2FEG3A | 
[V:2] B2c2B2e2- | 
[V:3] e4E4 | 
[V:4] E,8- :
[V:1] B3AB2c2 | 
[V:2] e2E2G4- | 
[V:3] G6FE | 
[V:4] E,8- :
[V:1] B2G4FE | 
[V:2] G2FEG4 | 
[V:3] G3AB2c2 | 
[V:4] E,8 | 
[V:1] F3GA_BA2- | 
[V:2] A8 | 
[V:3] d4z2d2- | 
[V:4] D,8- :
[V:1] AGG4F2 | 
[V:2] d8 | 
[V:3] d2B2A4 | 
[V:4] D,8 :
[V:1] G3ABcB2- | 
[V:2] B8 | 
[V:3] G4z2e2- | 
[V:4] E,8- :
[V:1] BAA4^G2 | 
[V:2] e8 | 
[V:3] e2c2B4 | 
[V:4] E,8 | 
[V:1] A8- | 
[V:2] c8 | 
[V:3] A8- | 
[V:4] F,8- :
[V:1] A8 | 
[V:2] f8 | 
[V:3] A8 | 
[V:4] F,8 :
[V:1] G6G2 | 
[V:2] e6e2 | 
[V:3] z4c4- | 
[V:4] C,8- :
[V:1] G4G4 | 
[V:2] e4e4 | 
[V:3] c4c4 | 
[V:4] C,8- | 
[V:1] G6FE | 
[V:2] E3FG2A2- | 
[V:3] c4c4 | 
[V:4] C,8- :
[V:1] E3FG2A2- | 
[V:2] A2G2E4 | 
[V:3] c6BA | 
[V:4] C,8 :
[V:1] A2GF_B2A2- | 
[V:2] F8 | 
[V:3] A4d3c | 
[V:4] D,8- :
[V:1] A2GF_B2A2- | 
[V:2] f8 | 
[V:3] A2_B3AF2 | 
[V:4] D,8 | 
[V:1] A2GFE2c2- | 
[V:2] e8 | 
[V:3] c3BG2A2- | 
[V:4] C,8- | 
[V:1] cBG2A3G | 
[V:2] c4A2c2- | 
[V:3] AGE2c4- | 
[V:4] C,8- | 
[V:1] E8- | 
[V:2] cBG2A4 | 
[V:3] c8- | 
[V:4] C,8- | 
[V:1] E8 ||  
[V:2] G8 ||  
[V:3] c8 ||  
[V:4] C,8 ||  
[V:1] [M:2/1]z8 | 
[V:2] [M:2/1]z8 | 
[V:3] [M:2/1]c3BAGA2- | 
[V:4] [M:2/1]F,,8 | 
[V:1] z8 | 
[V:2] z8 | 
[V:3] A2GFE4 | 
[V:4] F,,4G,,4 | 
[V:1] z8 | 
[V:2] c3BAGA2- | 
[V:3] z8 | 
[V:4] A,,8 | 
[V:1] z8 | 
[V:2] A2GFE4 | 
[V:3] z8 | 
[V:4] G,,8 | 
[V:1] c3BAGA2- | 
[V:2] z4F4 | 
[V:3] F4c4- | 
[V:4] F,,8 | 
[V:1] A2GFE4 | 
[V:2] c6BA | 
[V:3] c2BAG4 | 
[V:4] z4C,4 | 
[V:1] F3GA2_B2- | 
[V:2] A2d3c_BA | 
[V:3] F2_B2A2d2- | 
[V:4] D,8 | 
[V:1] BAGFE4 | 
[V:2] G2d2c3_B | 
[V:3] dc_BAG4 | 
[V:4] _B,,4C,4 | 
[V:1] F6G2 | 
[V:2] AG_B4AG | 
[V:3] F4_B4 | 
[V:4] D,8- | 
[V:1] A4_B4- | 
[V:2] F8 | 
[V:3] A4d4- | 
[V:4] D,4_B,,4 | 
[V:1] B2A2G2F2 | 
[V:2] D8 | 
[V:3] d2c2_B2A2 | 
[V:4] _B,,8 | 
[V:1] E2C2D4 | 
[V:2] z4D4 | 
[V:3] G2E2F2G2 | 
[V:4] C,4_B,,4 | 
[V:1] C8 | 
[V:2] E4F4 | 
[V:3] C2c3BA2 | 
[V:4] A,,4F,,4 | 
[V:1] z8 | 
[V:2] _B,8 | 
[V:3] GFF4E2 | 
[V:4] G,,8 | 
[V:1] z4z2C2 | 
[V:2] C4D2C2 | 
[V:3] F8 | 
[V:4] F,,8- | 
[V:1] D2C2F4 | 
[V:2] F4z2c2 | 
[V:3] z2C2D2C2 | 
[V:4] F,,8- | 
[V:1] z2C2D2C2 | 
[V:2] d2c2f4- | 
[V:3] F4z2C2 | 
[V:4] F,,8 | 
[V:1] F2G2A4 | 
[V:2] f2e2c4- | 
[V:3] D2C2F3G | 
[V:4] z8 | 
[V:1] z2C2D2C2 | 
[V:2] c2BAB2c2 | 
[V:3] A4z2C2 | 
[V:4] z8 | 
[V:1] F2G2A2B2 | 
[V:2] F2c3Ad2 | 
[V:3] D2C2F3G | 
[V:4] z8 | 
[V:1] c4z2C2 | 
[V:2] c2A3Bc2- | 
[V:3] A3Bc4 | 
[V:4] F,8- | 
[V:1] D2C2F4 | 
[V:2] cBAGA4 | 
[V:3] A4d4- | 
[V:4] F,4D,4 | 
[V:1] G6A2 | 
[V:2] G8 | 
[V:3] d2cBc4 | 
[V:4] E,8 | 
[V:1] _B4A4- | 
[V:2] G4A4- | 
[V:3] z4c4 | 
[V:4] G,4F,2E,2 | 
[V:1] A4F4 | 
[V:2] A2F2A4 | 
[V:3] d2f3edc | 
[V:4] D,8 | 
[V:1] G4A4 | 
[V:2] G4D4 | 
[V:3] B4A4 | 
[V:4] E,4F,4 | 
[V:1] _B6AG | 
[V:2] d8 | 
[V:3] G4d4- | 
[V:4] G,8- | 
[V:1] _B4A4 | 
[V:2] _B4c4 | 
[V:3] d2e2f3e | 
[V:4] G,4F,4 | 
[V:1] z2F2G2_B2- | 
[V:2] A4G2d2- | 
[V:3] c2d2e2f2 | 
[V:4] F,4E,2D,2 | 
[V:1] BAA4G2 | 
[V:2] dc_BA_B4 | 
[V:3] gfede4 | 
[V:4] E,8 | 
[V:1] A8- | 
[V:2] A4F4- | 
[V:3] z2c2d2f2- | 
[V:4] F,8 | 
[V:1] A8 | 
[V:2] F2G2A2B2 | 
[V:3] f2e2c2d2 | 
[V:4] z4F,4 | 
[V:1] z8 | 
[V:2] c2d2G2A2 | 
[V:3] A3Bc2F2- | 
[V:4] F,4E,2D,2- | 
[V:1] z8 | 
[V:2] B2c3BA2- | 
[V:3] F2G2A4 | 
[V:4] D,2C,2A,,4 | 
[V:1] D8 | 
[V:2] A2GFG2d2- | 
[V:3] D8 | 
[V:4] _B,,8 | 
[V:1] E8- | 
[V:2] d2cBc4- | 
[V:3] A8 | 
[V:4] A,,8 | 
[V:1] E8 | 
[V:2] c2B2A2G2 | 
[V:3] G4c4- | 
[V:4] C,8 | 
[V:1] F8 | 
[V:2] F8 | 
[V:3] c2BAB2A2 | 
[V:4] D,8 | 
[V:1] G8- | 
[V:2] c8 | 
[V:3] e8- | 
[V:4] C,8 | 
[V:1] G8- | 
[V:2] B3AB2c2- | 
[V:3] e8- | 
[V:4] E,8 | 
[V:1] G8 | 
[V:2] c2BAB2c2- | 
[V:3] e8 | 
[V:4] z4E,4 | 
[V:1] C4D4 | 
[V:2] cBAGF4 | 
[V:3] A6B2 | 
[V:4] F,4D,4 | 
[V:1] E8 | 
[V:2] G4A4- | 
[V:3] c8 | 
[V:4] C,8 | 
[V:1] F4G4- | 
[V:2] A4G4 | 
[V:3] z8 | 
[V:4] D,4E,4- | 
[V:1] G2F2E2D2 | 
[V:2] c6d2 | 
[V:3] z8 | 
[V:4] E,2D,2C,2B,,2 | 
[V:1] C2B,2A,2G,2 | 
[V:2] e8 | 
[V:3] c6B2 | 
[V:4] C,8 | 
[V:1] F,4F4- | 
[V:2] f8 | 
[V:3] A2G2F2E2 | 
[V:4] D,8 | 
[V:1] F2EDD4- | 
[V:2] F4G4 | 
[V:3] D8 | 
[V:4] D,4_B,,4 | 
[V:1] D4^C4 | 
[V:2] A8 | 
[V:3] E8 | 
[V:4] A,,8 | 
[V:1] D8 | 
[V:2] F8 | 
[V:3] D8 | 
[V:4] _B,,8 | 
[V:1] z4D4- | 
[V:2] G8 | 
[V:3] _B8 | 
[V:4] G,,8 | 
[V:1] D2CB,C4 | 
[V:2] E8 | 
[V:3] A6G2 | 
[V:4] A,,8 | 
[V:1] D4C4 | 
[V:2] D4A4- | 
[V:3] F2EDE4 | 
[V:4] _B,,4A,,4 | 
[V:1] F6E2 | 
[V:2] A4F4 | 
[V:3] D4A4 | 
[V:4] D,6C,2 | 
[V:1] D4C4 | 
[V:2] G4A4 | 
[V:3] _B4c4 | 
[V:4] _B,,4A,,4 | 
[V:1] z4G4 | 
[V:2] _B8 | 
[V:3] d4e4 | 
[V:4] G,,8 | 
[V:1] A3Bcdc2- | 
[V:2] A4F4 | 
[V:3] f4z2F2- | 
[V:4] F,,8- | 
[V:1] cBAGA2F2 | 
[V:2] c3BAGA2 | 
[V:3] FGABc2d2 | 
[V:4] F,,8 | 
[V:1] G2A3G_B2- | 
[V:2] G2F3EDC | 
[V:3] B2c3Bd2- | 
[V:4] z8 | 
[V:1] BAGFE3D | 
[V:2] _B,4C4 | 
[V:3] dc_BAG4 | 
[V:4] z8 | 
[V:1] F8- | 
[V:2] D8 | 
[V:3] F8- | 
[V:4] F,,8- | 
[V:1] F8 |]  
[V:2] C8 |]  
[V:3] F8 |]  
[V:4] F,,8 |]  



